COLOR/action 16/16/align-vertical-bottom.svg

<svg viewBox="0 0 24 24" xmlns="http://www.w3.org/2000/svg"><g transform="matrix(-1 0 0 1 24 6)"><path d="m4 4v16h1v-16zm3 0v6h13v-6zm0 10v6h6v-6z" fill="#c43ac4" transform="matrix(0 -1 1 0 0 18)"/><path d="m4 13v1h16v-1z" fill="#e95420"/><g transform="matrix(-1 0 0 1 24 -6)"><path d="m4 16.5v.5h6v-.5zm10 0v.5h6v-.5zm-10 3v.5h16v-.5z" opacity=".2"/><path d="m14 4v.5h6v-.5zm-10 7v.5h6v-.5zm0 8v.5h16v-.5z" fill="#fff" opacity=".3"/></g></g></svg>

<?xml version="1.0" encoding="UTF-8" standalone="no"?>
<svg
   xmlns:dc="http://purl.org/dc/elements/1.1/"
   xmlns:cc="http://creativecommons.org/ns#"
   xmlns:rdf="http://www.w3.org/1999/02/22-rdf-syntax-ns#"
   xmlns:svg="http://www.w3.org/2000/svg"
   xmlns="http://www.w3.org/2000/svg"
   xmlns:sodipodi="http://sodipodi.sourceforge.net/DTD/sodipodi-0.dtd"
   xmlns:inkscape="http://www.inkscape.org/namespaces/inkscape"
   viewBox="0 0 24 24"
   version="1.1"
   id="svg8"
   sodipodi:docname="align-vertical-bottom.svg"
   inkscape:version="0.92.4 (5da689c313, 2019-01-14)">
  <metadata
     id="metadata14">
    <rdf:RDF>
      <cc:Work
         rdf:about="">
        <dc:format>image/svg+xml</dc:format>
        <dc:type
           rdf:resource="http://purl.org/dc/dcmitype/StillImage" />
      </cc:Work>
    </rdf:RDF>
  </metadata>
  <defs
     id="defs12" />
  <sodipodi:namedview
     pagecolor="#ffffff"
     bordercolor="#666666"
     borderopacity="1"
     objecttolerance="10"
     gridtolerance="10"
     guidetolerance="10"
     inkscape:pageopacity="0"
     inkscape:pageshadow="2"
     inkscape:window-width="1920"
     inkscape:window-height="1016"
     id="namedview10"
     showgrid="false"
     inkscape:zoom="52.4375"
     inkscape:cx="12"
     inkscape:cy="8.9487485"
     inkscape:window-x="0"
     inkscape:window-y="27"
     inkscape:window-maximized="1"
     inkscape:current-layer="g6" />
  <g
     transform="matrix(-1 0 0 1 24 6)"
     id="g6">
    <path
       d="m4 4v16h1v-16zm3 0v6h13v-6zm0 10v6h6v-6z"
       transform="matrix(0 -1 1 0 0 18)"
       id="path2"
       fill="#c43ac4" />
    <path
       d="m4 13v1h16v-1z"
       id="path4"
       fill="#e95420" />
    <path
       d="M 4 16.5 L 4 17 L 10 17 L 10 16.5 L 4 16.5 z M 14 16.5 L 14 17 L 20 17 L 20 16.5 L 14 16.5 z M 4 19.5 L 4 20 L 20 20 L 20 19.5 L 4 19.5 z "
       transform="matrix(-1,0,0,1,24,-6)"
       id="path825"
       style="fill:#000000;fill-opacity:1;opacity:0.2" />
    <path
       d="M 14 4 L 14 4.5 L 20 4.5 L 20 4 L 14 4 z M 4 11 L 4 11.5 L 10 11.5 L 10 11 L 4 11 z M 4 19 L 4 19.5 L 20 19.5 L 20 19 L 4 19 z "
       transform="matrix(-1,0,0,1,24,-6)"
       id="path830"
       style="fill:#ffffff;fill-opacity:1;opacity:0.3" />
  </g>
</svg>
